X: 1
T: Fashion Which the Lasses Have, The
T: Am fasan th'aig na Caileagan
S: Airs &amp; Melodies Peculiar to the Highlands of Scotland...
N:Transposed from A major for comparison
Z: Nigel Gatherer
M: 4/4
L: 1/8
K: G
B | GE E/E/E GDDB | GE E/E/E B2 AB | GE E/E/E GDDG | EFGA B3 :|
e | dGeG BAAe | dGed B2 dg | dGeG BGAB | GEGA B2 Be |
dGeG BAAe | dGed B2 Ba | gfeg dgBG | EFGA BGAB |]
